X:46
T:Cape Breton Favourite
R:single jig
D:Maire O'Keefe
O:Cape Breton
Z:id:hn-slide-46
M:6/8
K:G
ded cBA|G2B D2B|BAB dcB|A3 ABc|ded cBA|G2B D2g|fed cBA|G3 GBc:|
|:dBd g2f|ece a2g|fed cde|d3 dBc|dBd g2f|ece a2g|fed cBA|G3 GBc:|
<end>
<start>
